packages/foundations/assets/icons/functional/images/security/lock_closed_32.svg

<svg width="32" height="32" viewBox="0 0 32 32" fill="none" xmlns="http://www.w3.org/2000/svg">
<g clip-path="url(#clip0_187_237)">
<path fill-rule="evenodd" clip-rule="evenodd" d="M15.9994 2.99689C19.7788 2.99689 22.9929 6.00785 22.9994 9.832C23.0006 10.5553 23.0006 11.2786 22.9994 12.0019C24.5971 12.0019 25.9994 13.2864 25.9994 15.0019C26.0011 18.6685 26.0011 22.3352 25.9994 26.0019C25.9994 27.5995 24.6855 29.0019 22.9994 29.0019C18.3327 29.0035 13.6661 29.0035 8.99939 29.0019C7.40171 29.0019 5.99939 27.7178 5.99939 26.0019V15.0019C5.99939 13.4042 7.28384 12.0019 8.99939 12.0019V9.832C8.99939 6.05074 12.1395 2.99689 15.9994 2.99689ZM7.99939 15.0019V26.0019C7.99939 26.5147 8.40996 27.0016 8.99939 27.0019C13.666 27.0041 18.3326 27.0041 22.9994 27.0019C23.5122 27.0019 23.999 26.5865 23.9994 26.0019C24.0016 22.3352 24.0016 18.6686 23.9994 15.0019C23.9994 14.489 23.5909 14.0021 22.9994 14.0019H8.99939C8.48655 14.0019 7.99975 14.4062 7.99939 15.0019ZM15.9994 17.0019C17.104 17.0019 17.9994 17.8973 17.9994 19.0019C17.9994 19.7417 17.5977 20.3877 17.0005 20.7337L16.9994 23.0149C16.9994 23.5672 16.5517 24.0149 15.9994 24.0149C15.4866 24.0149 15.0011 23.6028 14.9994 23.0149L14.9993 20.7343C14.4016 20.3884 13.9994 19.7421 13.9994 19.0019C13.9994 17.8973 14.8948 17.0019 15.9994 17.0019ZM15.9994 4.99689C13.3047 4.99689 11.0049 7.11923 10.9994 9.832C10.9979 10.5553 10.9978 11.2786 10.9991 12.0019L20.9991 12.0009L20.9994 9.832C20.9994 7.16797 18.767 4.99689 15.9994 4.99689Z" fill="#1A1C1F"/>
</g>
<defs>
<clipPath id="clip0_187_237">
<rect width="32" height="32" fill="white"/>
</clipPath>
</defs>
</svg>

<svg xmlns="http://www.w3.org/2000/svg" width="32" height="32" fill="none"><g clip-path="url(#a)"><path fill="#1A1C1F" fill-rule="evenodd" d="M16 2.997c3.779 0 6.993 3.01 7 6.835v2.17c1.597 0 3 1.284 3 3v11c0 1.598-1.314 3-3 3q-7 .003-14 0c-1.598 0-3-1.284-3-3v-11c0-1.598 1.284-3 3-3v-2.17c0-3.781 3.14-6.835 7-6.835M8 15.002v11c0 .513.41 1 1 1q7 .003 14 0c.512 0 .999-.415 1-1q.003-5.5 0-11a1 1 0 0 0-1-1H9c-.513 0-1 .404-1 1m8 2a2 2 0 0 1 1 3.732v2.28a1 1 0 1 1-2 0v-2.28a2 2 0 0 1 1-3.732m0-12.005c-2.695 0-4.995 2.122-5 4.835q-.003 1.085 0 2.17L21 12V9.832c0-2.664-2.233-4.835-5-4.835" clip-rule="evenodd"/></g><defs><clipPath id="a"><path fill="#fff" d="M0 0h32v32H0z"/></clipPath></defs></svg>
